X:21
T:Birmingham
S:Trad, arr. Paddy O'Brien 
R:reel
E:9
I:speed 350
M:C|
K:G
f2|~g2gf gdBd|gdBd eaaf|~g2fa gdBd|ecAc BGBd|\
~g2 gf gdBd|gdBd eaaf|~g2 fa gdBd|ecAc BG G2||\
F2|GdBd ~G2GD|GdBd eA~A2|GdBd gfge|fdcA AGFD|\
BdBd ~G2 GD|GdBd eA~A2|~G2 Bd gfge|fdcA AGFD||\
~G2 dG BGdG|~G2dG FDFA|~G2dG Bdeg|fdcA AGFD|\
~G2 dG BGdG|~G2dG FDFA|~G2 dG Bdeg|fdcA BG G2||**


